X: 6
T:Mist on the Mountain (Jig)
T:Mist Covered Mountains
N: page 2
N: pentatonic
C:Junior Crehan
R:jig
E:10
I:speed 300
M:6/8
K:Ador
G|"Am"EAA ABd|edB AGE|"G"~G3 GAB|"D"dBA "G"GED|\
"Am"EAA ABd|edB AGE|efg "Em"dBG|"G"BAG "Am"A2:|
a|"Am"age a2b|age edB|"G"AGE G2A|"Em"BAB "D"GED|\
  "Am"age a2b|age edB|"G"AGE "Em"G2A|"G"BAG "Am"A3|
  "Am"age a2b|age edB|AGE "G"G2A|"D"BAB "Em"GED|\
"D"EDE "G"G2A|BAG ABd|"D"efg "G"dBG|"Em"BAG "Am"A2||
